X:1
T:Untitled in 2/4 - second half missing. SenH.118
T:Untitled in 2/4 - second half missing. SenH.118
T:in Hand C
C:in Hand C
L:1/8
Q:1/4=100
M:2/4
K:C
V:1 treble 
V:1
 a/g/f/e/ d_b | g3 f | e/a/g/a/ d/g/f/g/ | ^c4 | a/g/f/e/ d_b | g3 f | ef/g/ A^c | d4 || A/d/c/d/ | %9
"^next page missing" z z z | %10

